svgs/sharp-solid/folder-plus.svg

<svg xmlns="http://www.w3.org/2000/svg" viewBox="0 0 512 512"><!--! Font Awesome Pro 6.6.0 by @fontawesome - https://fontawesome.com License - https://fontawesome.com/license (Commercial License) Copyright 2024 Fonticons, Inc. --><path d="M512 480L0 480 0 32l224 0 48 64 240 0 0 384zM232 400l48 0 0-24 0-64 64 0 24 0 0-48-24 0-64 0 0-64 0-24-48 0 0 24 0 64-64 0-24 0 0 48 24 0 64 0 0 64 0 24z"/></svg>

<svg xmlns="http://www.w3.org/2000/svg" viewBox="0 0 512 512"><!--! Font Awesome Pro 6.4.0 by @fontawesome - https://fontawesome.com License - https://fontawesome.com/license (Commercial License) Copyright 2023 Fonticons, Inc. --><path d="M512 480H0V32H224l48 64H512V480zM232 400h48V376 312h64 24V264H344 280V200 176H232v24 64H168 144v48h24 64v64 24z"/></svg>
